X:80
T:Chanson
T:John Malchair's Third Collection of Tunes
%%VWML:Malchair-3619-p80
F:https://www.vwml.org/record/Malchair/3619/p80
F:www.vwml.org/topics/historic-dance-and-tune-books/Malchair
Z:Eric Conrad Mar 2020
M:2/4
L:1/16
K:Am
c2 | B>cA2 ^G3A | B>cA2 ^G3A | B>cA2 d3c | B4E2 :| \
|: B2 | c3e d>ec2 | B>cA2 d>ec2 | B4 E2B2 | c3e d>ec2 | \
B>cA2 d>ec2 | B>cA2 {c}B3^G | A4 A,2 :|
x2 [|]  % added to avoid timing error
T:
% Z:Eric Conrad Mar 2020
M:3/4
L:1/8
K:Cmin
|: g2g2ge | g2f2{gf}ef | g2afge | g2{g}f2e2 :|
|: c2eg(df) | (ec)egd2 | c2edfg | dec4 :|
T:
% Z:Eric Conrad Mar 2020
M:3/4
L:1/8
K:Cm
|: g2eg!trill!f2 | ec df !trill!e2 | (g2c2)c2 :| \
|: g2eg!trill!f2 | ec df !trill!e2 | G2g2!trill!f2 | \
(ec) (df) !trill!e2 | G2c2c2 :|
T:Musique pour le Lour.
% music for the lur
T:John Malchair's Third Collection of Tunes
F:https://www.vwml.org/record/Malchair/3619/p80
F:www.vwml.org/topics/historic-dance-and-tune-books/Malchair
%Z:Eric Conrad Mar 2020
W:fort a[n]cien instrument \`a vent, espece de l'or.
% strong old wind instrument, a sort of gold (i.e. treasure?)
M:2/4
L:1/16
K:Gm
d3c B2G2 | A4 B2G2 | (d3c) B2G2 | A4 B2G2 | \
d3c G2B2 | A2B2 d4 | c3d/c/ B2G2 | A2B2 d4 | \
c3d/c/ B2G2 | ABcA B2G2 | c3d/c/ B2G2 | ABcA B2G2 | \
c3d/c/ B2d2 | A4 A2B2 | G4 G4 |]

